X:1
T:Vals efter Pål Karl, Älvdalen
R:vals
M:3/4
L:1/16
Q:1/4=140
K:G
P:A
|"Am"A2A2|
|: A4 c2A2 c2d2| e6 e2 e2e2| e4 f4 d4 | c8 c2d2\
|c4 B2G2 B2G2|1 A6 A2 A2A2:|2 A6 A2 c2d2|
P:B
|: "Am"e2f2 e4 d4| "D"f2af e2d2 c2d2| "Am"e2f2 e4 d4 | "D"f2af e2d2 c2d2 \
| "Am"e2f2 e2d2 f2d2| e6 B2 c2d2| e4 f4 d4 | c8 c2d2 | c4 B2G2 B2G2\
|1 A8 c2d2 :|2 A8 z4||

